build/payment/MirM.svg

<svg xmlns="http://www.w3.org/2000/svg" fill="none" viewBox="0 0 28 20" focusable="false"><path fill="none" d="M0 0H28V20H0z"/><rect width="28" height="20" fill="#F5F5F6" rx="2"/><path fill="#28303D" fill-rule="evenodd" d="M9.22923 7C8.74349 7 8.31608 7.32164 8.18114 7.78866L7.38592 10.5456L7.24972 10.5456L6.4545 7.78866C6.31956 7.32164 5.89215 7 5.40641 7L3.5 7L3.5 12.9999L5.40858 12.9999L5.40858 9.45436L5.54523 9.45436L6.63598 12.9999L7.99959 12.9999L9.09042 9.45436L9.22662 9.45436L9.22662 12.9999L11.1356 12.9999L11.1356 7L9.22923 7ZM15.343 7.63373C15.5214 7.24728 15.9079 7 16.3336 7L17.9536 7L17.9536 12.9996L16.0446 12.9996L16.0446 9.45443L15.9084 9.45443L14.5643 12.3658C14.3858 12.7523 13.9994 12.9996 13.5741 12.9996L11.9536 12.9996L11.9536 7L13.8627 7L13.8627 10.5451L13.9994 10.5451L15.343 7.63373ZM18.499 7C18.7558 8.39628 19.9775 9.45443 21.4478 9.45443L24.7305 9.45443C24.757 9.32211 24.7714 9.18539 24.7714 9.04523C24.7714 7.91584 23.8556 7 22.7262 7L18.499 7ZM18.7715 13.0002L18.7715 9.72754L24.6522 9.72754C24.371 10.5215 23.6158 11.0912 22.7257 11.0912L20.6766 11.0912L20.6766 13.0002L18.7715 13.0002Z"/></svg>

<svg xmlns="http://www.w3.org/2000/svg" fill="none" viewBox="0 0 28 20" focusable="false"><path fill="none" d="M0 0h28v20H0z"/><rect width="28" height="20" fill="#F0F2F5" rx="2"/><path fill="#29313D" fill-rule="evenodd" d="M9.22 7c-.48 0-.91.32-1.04.78l-.8 2.76h-.14l-.79-2.76C6.31 7.32 5.89 7 5.4 7H3.5v5.99h1.9V9.45h.14l1.09 3.54h1.36l1.1-3.54h.13v3.54h1.91V7zm7.11 0c-.43 0-.81.24-.99.63l-1.35 2.91h-.13V7h-1.91v5.99h1.62c.42 0 .81-.24.99-.63l1.34-2.91h.14v3.54h1.91V7zm2.16 0a3.006 3.006 0 0 0 2.95 2.45h3.29A2.044 2.044 0 0 0 22.72 7zm.28 6V9.72h5.88c-.28.8-1.04 1.37-1.93 1.37h-2.05V13z"/></svg>
